X:5
T:The Concertina Reel
I:titlefont Times-Roman 24
I:partsfont Times-Roman 20
R: reel
O:Trad. (11.9.2013/NS)
M:4/4
L:1/8
K:Dmaj
|:"D"A2FA BAFA|A2FA BAFA|"G"B2cA BAcA|BAcA BAFG|
"D"A2FA BAFA|A2FA BAFE|"G"FABc d2dB|"A"AFEF "D"D4:|
|:"D"Ad ~d2 Ad ~d2|"D/F#"AddA BAFA|"G"B2cA BAcA|"A"BAcA BAFG|
"D"Ad ~d2 "D/C#"Ad ~d2|"G/B"Addc "A"d3B|"G"A2FA BcdB|"A"AFEF "D"D4:|
%%vskip
W:The Concertina Reel
%%vskip
W:||: A2FA BAFA | A2FA BAFA | B2cA BAcA | BAcA BAFG |
W: A2FA BAFA | A2FA BAFE | FABc d2dB | AFEF D4 :|
W:||: Ad ~d2 Ad ~d2 | AddA BAFA | B2cA BAcA | BAcA BAFG |
W: Ad ~d2 Ad ~d2 | Addc d3B  A2FA BcdB | AFEF D4 :|
%%vskip
%%vskip
K:Emin
P:Dunmore Lasses
"Em"E2 EF G2 GA|Be~e2 Be~e2|E2 EF G2BG|"D"A2BA GAFG|
"Em"E2 EF G2 GA|Beed e2 ef|"C"(3gfe fd edBG|"D"A2BA GAFG:|
%%vskip
|:"Em"gfeg fedA|Be~e2 Be~e2|gfeg fedB|"D"A2BA GE~E2|
"C"~g3e ~f3A|Beed e2ef|"D"(3gfe fd edBG|A2BA GEE2:|
%%vskip
W:Dunmore Lasses
%%vskip
W:||: E2 EF G2 GA | Be~e2 Be~e2 | E2 EF G2BG | A2BA GAFG |
W:E2 EF G2 GA | Beed e2 ef | (3gfe fd edBG | A2BA GAFG :|
W:||: gfeg fedA| Be~e2 Be~e2 | gfeg fedB | A2BA GE~E2 |
W:~g3e ~f3A  |Beed e2ef | (3gfe fd edBG | A2BA GEE2 :|

